X:1
T:Mon cueur avez
T:Ebran
T:Source :  Livre XII de 30 chansons nouvelles à 4 parties---Paris---P.Attaingnant---1543. Editor : André Vierendeels (17/06/18) Notes : Original clefs : C1, C3, C4, F4 Original note values have been halved Editorial accidentals above the staff Square brackets indicate ligatures
T:Mon cueur avez
T:©
T:©
T:©
T:©
C:Ebran
Z:©
%%score [ 1 [ 2 3 ] 4 ]
L:1/8
Q:1/4=120
M:2/2
K:F
V:1 treble nm="Alto" snm="A"
V:2 treble-8 nm="Tenor 1" snm="T 1"
V:3 treble-8 nm="Tenor 2" snm="T 2"
V:4 bass nm="Bass" snm="B"
V:1
 A8 | G2 F3 G A2 | G2 F4 E2 | F4 z2 C2 | C2 C2 D3 E | F4 z4 | c4 c2 G2 | A2 B2 c2 CD | %8
w: Mon|cueur a- * *||vez pre-|sent vous en ay|faict,|pre- sent vous|en ay _ _ _|
w: Ay-|ant le _ _|_ _ _|cueur, du|corps dis- po- se-|rez,|du corps dis-|po- * * * *|
 EFGE FG A2- | A2 G2 F4 | E3 D EF G2- | G2 F4 E2 |[M:2/4] F4 :|[M:2/2] z2 A4 G2 | F4 F2 D2 | %15
w: _ _ _ _ _ _ _||||faict,|ren- dez|moy donc pa-|
w: |||* * se-|rez,|||
 F3 G A2 B2 | A2 G4 F2 | G4 z2 G2 | G2 G2 A2 A2 | F2 G2 E2 F2 | G4 z2 F2 | F2 F2 E2 F2 | %22
w: reil _ _ don,|en ef- *|fect, ie|vous en pri, puis|vo- stre voeil par-|faict, puis|vo- stre voeil par-|
w: |||||||
 C2 c3 B A2- | A2 G3 F ED | C4 z4 | z2 A2 A2 A2 | G2 A2 F2 B2- | BA A4 G2 |[M:2/4] A4 |: %29
w: faict, _ _ _|_ _ _ _ _||puis vo- stre|voeil par- * *||faict|
w: |||||||
[M:2/2] z2 A4 G2- | G2 F3 G A2 | G2 F4 E2 | F4 z2 C2 | C2 C2 D3 E | F4 z4 | c4 c2 G2 | %36
w: es- tre,|_ pour- * *||ra com-|me vous le di-|rez,|com- me vous|
w: |||||||
 A2 B2 c2 CD | EFGE FG A2- | A2 G2 F4 | E3 D EF G2- | GF F4 E2 | F8 :| %42
w: le di- * * *|||||rez.|
w: ||||||
V:2
 f8 | e2 d4 c2 | d4 c3 B | AG A4 GF | G2 A2 B4 | z2 c2 c2 c2 | f2 f2 e3 d | ef g2 c2 c2 | %8
w: Mon|cueur a- *|||* * vez|pre- sent vous|en ay _ _|_ _ _ _ _|
w: Ay-|ant le _|_ _ _||* * cueur,|du corps dis-|po- se- * *||
 c2 G2 A3 B | c4 d4 | G2 G2 c2 d2 | c6 c2 |[M:2/4] A4 :|[M:2/2] z2 f4 e2 | d4 d2 B2 | %15
w: ||||faict,|ren- dez|moy donc pa-|
w: ||||rez,|||
 d2 d2 c2 f2- | fedc d4- | d4 e4 | e2 e2 f2 f2 | d2 e2 c2 z c | c2 c2 d2 B2 | A2 FG AB c2 | A4 z4 | %23
w: reil don, en ef-|* * * * fect,|_ ie|vous en pri, puis|vo- ste voeil, puis|vo- stre voeil par-|faict, _ _ _ _ _|_|
w: ||||||||
 z4 z2 c2 | c2 c2 d2 e2 | f3 e/d/ e2 f2 | e2 c2 d2 f2- | fe f2 d4- |[M:2/4] d4 |: %29
w: puis|vo- stre voeil par-|gaict, _ _ _ puis|vo- stre voeil par-|* * * faict|_|
w: ||||||
[M:2/2] z2 f4 e2- | e2 d4 c2 | d4 c3 B | AG A4 GF | G2 A2 B4 | z2 c2 c2 c2 | f2 f2 e3 d | %36
w: es- tre,|_ pour- *|||* * ra,|com- me vous|le di- * *|
w: |||||||
 ef g2 c2 c2 | c2 G2 A3 B | c4 d4 | G2 G2 c2 d2 | c6 c2 | c8 :| %42
w: * * rez, com- me|vous le di- *||rez, com- me vous|le di-|rez.|
w: ||||||
V:3
 c8 | cBAG A2 F2 | B3 A G4 | F8 | z4 F4 | F2 F2 G2 G2 | A3 G AB c2- | c2 B2 A2 F2 | GFED C2 c2 | %9
w: Mon|cueur _ _ _ _ a-||vez|pre|sent vous en ay|faict, _ _ _ _|_ _ _ _|* * * * * pre-|
w: Ay-|ant _ _ _ _ le|cueur, _ _|_|du|corps dis- po- se-|rez, _ _ _ _|_ _ _ _|* * * * * du|
 c2 G2 A2 B2 | c3 B G2 B2 | A4 G4 |[M:2/4] F4 :|[M:2/2] z2 c4 c2 | A4 B2 F2 | B2 B2 A2 d2 | %16
w: sent vous en ay|_ _ _ _||faict,|ren- dez|moy donc pa-|reil don, en ef-|
w: corps dis- po- se-|||rez,||||
 c2 B2 A4 | G8 | c4 c2 c2 | F2 B2 A2 A2 | G2 G2 B3 A | FGAB c4 | z4 z2 c2 | c2 c2 B2 c2 | %24
w: |fect,|ie vous en|pri, puis vo- stre|voeil par- * *|* * * * faict,|puis|vo- stre voeil par-|
w: ||||||||
 G3 A B2 G2 | A2 c4 F2 | c2 A2 B2 d2- | d2 c2 B4 |[M:2/4] A4 |:[M:2/2] z2 c4 c2- | cBAG A2 F2 | %31
w: faict, _ _ _|puis vo- stre|voeil par- * *||faict,|es- tre|_ _ _ _ _ _|
w: |||||||
 B3 A G4 | F8 | z4 F4 | F2 F2 G2 G2 | A3 G AB c2- | c2 B2 A2 F2 | GFED C2 c2 | c2 G2 A2 B2 | %39
w: pour- * *|ra,|com-|me vous le di-|||* * * * rez, com-|me vous le di-|
w: ||||||||
 c3 B G2 B2 | A4 G4 | F8 :| %42
w: ||rez.|
w: |||
V:4
 F,8 | C,2 D,3 C, A,,2 | B,,4 C,4 | F,,2 F,,2 F,,2 F,,2 | C,2 C,2 B,,3 C, | D,E, F,4 E,2 | %6
w: Mon|cueur a- * *||vez, pre- sent vous|en ay faict _|_ _ _ _|
w: Ay-|ant le _ _|_ _|cueur, du corps dis-|po- se- rez, _|_ _ _ _|
 F,4 C,4 | z4 F,,4 | C,2 C,2 A,,2 F,,2 | F,2 E,2 D,4 | C,2 C,2 C,2 G,,2 | A,,3 B,, C,4 | %12
w: |pre-|sent vous en ay|faict, pre- sent|vous en ay _|_ _ _|
w: |du|corps dis- po- se-|rez, du corps|dis- po- se- *||
[M:2/4]"^#" F,,4 :|[M:2/2] z2 F,4 C,2 | D,4 B,,2 B,,2 | B,,C,D,E, F,2 B,,2 | F,2 G,2 D,4 | %17
w: faict,|ren- dez|moy donc pa-|reil _ _ _ don, en|ef- * *|
w: rez,|||||
 G,,4 C,4 | C,2 C,2 F,,2 F,,2 | B,,2 G,,2 A,,2 F,,2 | C,3 B,, G,,A,,B,,C, | D,4 z2 F,2 | %22
w: fect ie|vous en pri, puis|vo- stre voeil, puis|vo- stre voeil, _ _ _|_ puis|
w: |||||
 F,2 F,2 E,2 F,2 | C,4 z2 C,2 | C,2 C,2 B,,2 C,2 | F,,G,,A,,B,, C,2 D,2 | E,2 F,2 D,2 B,,2 | %27
w: vo- stre voeil par-|faict, puis|vo- stre voeil par-|faict _ _ _ _ puis|vo- stre voeil par-|
w: |||||
 F,4 G,4 |[M:2/4] D,4 |:[M:2/2] z2 F,4 C,2- | C,2 D,3 C, A,,2 | B,,4 C,4 | F,,2 F,,2 F,,2 F,,2 | %33
w: |gaict,|es- tre|_ pour- * *||ra, com- me vous|
w: ||||||
 C,2 C,2 B,,3 C, | D,E, F,4 E,2 | F,4 C,4 | z4 F,,4 | C,2 C,2 A,,2 F,,2 | F,2 E,2 D,4 | %39
w: le di- * *||* rez,|com-|me vous le di-||
w: ||||||
 C,2 C,2 C,2 G,,2 | A,,3 B,, C,4 | F,,8 :| %42
w: rez, com- me vous|le- * di-|rez.|
w: |||

